common/icons/svgs/speech_to_text.svg

<svg xmlns="http://www.w3.org/2000/svg" width="24" height="24" viewBox="0 0 24 24">
  <g fill="none" fill-rule="evenodd" transform="translate(-360 -318)">
    <rect width="504" height="450" fill="#FFF"/>
    <g transform="translate(360 318)">
      <rect width="24" height="24"/>
      <path fill="#000" fill-rule="nonzero" d="M22.0615385,10.5230769 L20.3076923,10.5230769 L20.3076923,15.1384615 L19.0153846,15.1384615 L19.0153846,10.5230769 L17.3538462,10.5230769 L17.3538462,9.50769231 L22.0615385,9.50769231 L22.0615385,10.5230769 L22.0615385,10.5230769 Z M15.2307692,12.1846154 L17.1692308,15.1384615 L15.6923077,15.1384615 L14.4923077,13.2 L13.2,15.1384615 L11.8153846,15.1384615 L13.8461538,12.1846154 L12,9.50769231 L13.4769231,9.50769231 L14.5846154,11.3538462 L15.7846154,9.50769231 L17.1692308,9.50769231 L15.2307692,12.1846154 L15.2307692,12.1846154 Z M11.4461538,15.1384615 L7.10769231,15.1384615 L7.10769231,9.41538462 L11.3538462,9.41538462 L11.3538462,10.4307692 L8.4,10.4307692 L8.4,11.6307692 L11.1692308,11.6307692 L11.1692308,12.6461538 L8.4,12.6461538 L8.4,14.0307692 L11.4461538,14.0307692 L11.4461538,15.1384615 L11.4461538,15.1384615 Z M6.64615385,10.5230769 L4.89230769,10.5230769 L4.89230769,15.1384615 L3.69230769,15.1384615 L3.69230769,10.5230769 L1.93846154,10.5230769 L1.93846154,9.50769231 L6.64615385,9.50769231 L6.64615385,10.5230769 Z M24,20.6769231 L24,3.32307692 C24,1.47692308 22.5230769,0 20.6769231,0 L3.32307692,0 C1.47692308,0 0,1.47692308 0,3.32307692 L0,20.6769231 C0,22.5230769 1.47692308,24 3.32307692,24 L20.6769231,24 C22.5230769,24 24,22.5230769 24,20.6769231 L24,20.6769231 Z"/>
    </g>
  </g>
</svg>

<svg xmlns="http://www.w3.org/2000/svg" viewbox="0 0 24 24"><path class="icon__shape" fill-rule="nonzero" d="M22.062 10.523h-1.754v4.615h-1.293v-4.615h-1.661V9.508h4.708v1.015zm-6.831 1.662l1.938 2.953h-1.477l-1.2-1.938-1.292 1.938h-1.385l2.031-2.953L12 9.508h1.477l1.108 1.846 1.2-1.846h1.384l-1.938 2.677zm-3.785 2.953H7.108V9.415h4.246v1.016H8.4v1.2h2.77v1.015H8.4v1.385h3.046v1.107zm-4.8-4.615H4.892v4.615h-1.2v-4.615H1.938V9.508h4.708v1.015zM24 20.677V3.323A3.31 3.31 0 0 0 20.677 0H3.323A3.31 3.31 0 0 0 0 3.323v17.354A3.31 3.31 0 0 0 3.323 24h17.354A3.31 3.31 0 0 0 24 20.677z"/></svg>
